flaticon/constructions/toolbox-1.svg

<svg xmlns="http://www.w3.org/2000/svg" width="32" height="32" viewBox="0 0 24 24">
    <path d="M 22.601562 9.40625 C 21.71875 8.847656 21.199219 7.847656 21.199219 6.726562 L 21.199219 5.886719 C 21.199219 4.449219 20.160156 3.207031 18.800781 3.046875 C 18 2.925781 17.160156 3.167969 16.558594 3.6875 C 16.0625 4.152344 15.730469 4.757812 15.632812 5.40625 L 8.359375 5.40625 C 8.160156 4.179688 7.203125 3.183594 5.960938 3.007812 C 5.160156 2.925781 4.359375 3.167969 3.761719 3.6875 C 3.160156 4.246094 2.800781 5.007812 2.800781 5.808594 L 2.800781 6.726562 C 2.800781 7.808594 2.28125 8.847656 1.359375 9.40625 C 0.519531 9.925781 0 10.847656 0 11.808594 L 0 21.007812 L 24 21.007812 L 24 11.808594 C 24 10.527344 22.601562 9.40625 22.601562 9.40625 Z M 12.800781 12.207031 L 11.199219 12.207031 L 11.199219 11.808594 C 11.199219 10.847656 10.679688 9.96875 9.800781 9.40625 C 8.921875 8.847656 8.398438 7.847656 8.398438 6.726562 L 8.398438 6.207031 L 15.601562 6.207031 L 15.601562 6.726562 C 15.601562 7.808594 15.039062 8.847656 14.160156 9.40625 C 13.320312 9.925781 12.800781 10.847656 12.800781 11.808594 Z M 10.398438 20.207031 L 0.800781 20.207031 L 0.800781 11.808594 C 0.800781 11.128906 1.160156 10.488281 1.800781 10.128906 L 1.839844 10.085938 C 2.921875 9.367188 3.601562 8.085938 3.601562 6.726562 L 3.601562 5.808594 C 3.601562 5.246094 3.839844 4.6875 4.28125 4.289062 C 4.71875 3.886719 5.28125 3.726562 5.878906 3.808594 C 6.839844 3.925781 7.601562 4.847656 7.601562 5.886719 L 7.601562 6.6875 C 7.601562 8.085938 8.28125 9.367188 9.359375 10.046875 L 9.398438 10.085938 C 10.039062 10.488281 10.398438 11.128906 10.398438 11.808594 Z M 23.199219 13.808594 L 20.800781 13.808594 C 20.558594 13.808594 20.398438 13.96875 20.398438 14.207031 C 20.398438 14.449219 20.558594 14.609375 20.800781 14.609375 L 23.199219 14.609375 L 23.199219 15.40625 L 20.398438 15.40625 C 20.160156 15.40625 20 15.566406 20 15.808594 C 20 16.046875 20.160156 16.207031 20.398438 16.207031 L 23.199219 16.207031 L 23.199219 17.007812 L 18 17.007812 C 17.761719 17.007812 17.601562 17.167969 17.601562 17.40625 C 17.601562 17.648438 17.761719 17.808594 18 17.808594 L 23.199219 17.808594 L 23.199219 18.605469 L 20.800781 18.605469 C 20.558594 18.605469 20.398438 18.765625 20.398438 19.007812 C 20.398438 19.246094 20.558594 19.40625 20.800781 19.40625 L 23.199219 19.40625 L 23.199219 20.207031 L 11.199219 20.207031 L 11.199219 19.40625 L 14 19.40625 C 14.238281 19.40625 14.398438 19.246094 14.398438 19.007812 C 14.398438 18.765625 14.238281 18.609375 14 18.609375 L 11.199219 18.609375 L 11.199219 17.808594 L 13.601562 17.808594 C 13.839844 17.808594 14 17.648438 14 17.40625 C 14 17.167969 13.839844 17.007812 13.601562 17.007812 L 11.199219 17.007812 L 11.199219 16.207031 L 16 16.207031 C 16.238281 16.207031 16.398438 16.046875 16.398438 15.808594 C 16.398438 15.566406 16.238281 15.40625 16 15.40625 L 11.199219 15.40625 L 11.199219 14.609375 L 14 14.609375 C 14.238281 14.609375 14.398438 14.449219 14.398438 14.207031 C 14.398438 13.96875 14.238281 13.808594 14 13.808594 L 11.199219 13.808594 L 11.199219 13.007812 L 23.199219 13.007812 Z M 23.199219 12.207031 L 13.601562 12.207031 L 13.601562 11.847656 C 13.601562 11.167969 13.960938 10.527344 14.601562 10.128906 L 14.640625 10.085938 C 15.71875 9.367188 16.398438 8.085938 16.398438 6.726562 L 16.398438 6.207031 L 18.398438 6.207031 C 18.640625 6.207031 18.800781 6.046875 18.800781 5.808594 C 18.800781 5.566406 18.640625 5.40625 18.398438 5.40625 L 16.441406 5.40625 C 16.527344 4.988281 16.746094 4.59375 17.078125 4.289062 C 17.519531 3.886719 18.078125 3.726562 18.679688 3.808594 C 19.640625 3.925781 20.398438 4.847656 20.398438 5.886719 L 20.398438 6.726562 C 20.398438 7.648438 21.238281 8.847656 21.761719 9.566406 C 21.960938 9.847656 22.199219 10.085938 22.441406 10.289062 C 22.921875 10.6875 23.199219 11.246094 23.199219 11.847656 Z M 23.199219 12.207031"/>
    <path d="M18.800781 15.40625L17.601562 15.40625C17.359375 15.40625 17.199219 15.566406 17.199219 15.808594 17.199219 16.046875 17.359375 16.207031 17.601562 16.207031L18.800781 16.207031C19.039062 16.207031 19.199219 16.046875 19.199219 15.808594 19.199219 15.566406 19.039062 15.40625 18.800781 15.40625zM15.601562 14.609375L19.199219 14.609375C19.441406 14.609375 19.601562 14.449219 19.601562 14.207031 19.601562 13.96875 19.441406 13.808594 19.199219 13.808594L15.601562 13.808594C15.359375 13.808594 15.199219 13.96875 15.199219 14.207031 15.199219 14.449219 15.359375 14.609375 15.601562 14.609375zM15.199219 19.007812C15.199219 19.246094 15.359375 19.40625 15.601562 19.40625L19.199219 19.40625C19.441406 19.40625 19.601562 19.246094 19.601562 19.007812 19.601562 18.765625 19.441406 18.609375 19.199219 18.609375L15.601562 18.609375C15.359375 18.609375 15.199219 18.765625 15.199219 19.007812zM16.398438 17.808594C16.640625 17.808594 16.800781 17.648438 16.800781 17.40625 16.800781 17.167969 16.640625 17.007812 16.398438 17.007812L15.199219 17.007812C14.960938 17.007812 14.800781 17.167969 14.800781 17.40625 14.800781 17.648438 14.960938 17.808594 15.199219 17.808594zM16.398438 17.808594"/>
</svg>

<svg xmlns="http://www.w3.org/2000/svg" width="32" height="32" viewBox="0 0 24 24">
    <path d="M22.602 9.406c-.883-.558-1.403-1.558-1.403-2.68v-.84c0-1.437-1.039-2.679-2.398-2.84-.801-.12-1.64.122-2.242.642a2.983 2.983 0 0 0-.926 1.718H8.359C8.16 4.18 7.203 3.184 5.961 3.008c-.8-.082-1.602.16-2.2.68-.6.558-.96 1.32-.96 2.12v.919c0 1.082-.52 2.12-1.442 2.68A2.856 2.856 0 0 0 0 11.808v9.199h24v-9.2c0-1.28-1.398-2.402-1.398-2.402zM12.8 12.207h-1.602v-.398c0-.961-.52-1.84-1.398-2.403-.88-.558-1.403-1.558-1.403-2.68v-.519h7.204v.52c0 1.082-.563 2.12-1.442 2.68a2.856 2.856 0 0 0-1.36 2.402zm-2.403 8H.801v-8.398c0-.68.36-1.32 1-1.68l.039-.043c1.082-.719 1.762-2 1.762-3.36V5.81c0-.563.238-1.122.68-1.52.437-.402 1-.562 1.597-.48.96.117 1.723 1.039 1.723 2.078v.8c0 1.399.68 2.68 1.757 3.36l.04.039c.64.402 1 1.043 1 1.723zM23.2 13.809h-2.398c-.242 0-.403.16-.403.398 0 .242.16.402.403.402h2.398v.797h-2.8c-.239 0-.399.16-.399.403 0 .238.16.398.398.398H23.2v.8H18c-.238 0-.398.161-.398.4 0 .241.16.402.398.402h5.2v.796h-2.4c-.241 0-.402.16-.402.403 0 .238.16.398.403.398h2.398v.801h-12v-.8H14c.238 0 .398-.16.398-.4 0-.241-.16-.398-.398-.398h-2.8v-.8h2.402c.238 0 .398-.16.398-.403 0-.238-.16-.398-.398-.398h-2.403v-.801H16c.238 0 .398-.16.398-.398 0-.243-.16-.403-.398-.403h-4.8v-.797H14c.238 0 .398-.16.398-.402 0-.238-.16-.398-.398-.398h-2.8v-.801h12zm0-1.602h-9.597v-.36c0-.679.359-1.32 1-1.718l.039-.043c1.078-.719 1.757-2 1.757-3.36v-.519h2c.243 0 .403-.16.403-.398 0-.243-.16-.403-.403-.403h-1.957c.086-.418.305-.812.637-1.117.442-.402 1-.562 1.602-.48.96.117 1.718 1.039 1.718 2.078v.84c0 .921.84 2.12 1.364 2.84.199.28.437.519.68.722.48.399.757.957.757 1.559zm0 0"/>
    <path d="M18.8 15.406h-1.198c-.243 0-.403.16-.403.403 0 .238.16.398.403.398H18.8c.238 0 .398-.16.398-.398 0-.243-.16-.403-.398-.403zm0 0M15.602 14.61h3.597c.242 0 .403-.16.403-.403 0-.238-.16-.398-.403-.398h-3.597c-.243 0-.403.16-.403.398 0 .242.16.402.403.402zm0 0M15.2 19.008c0 .238.16.398.402.398h3.597c.242 0 .403-.16.403-.398 0-.242-.16-.399-.403-.399h-3.597c-.243 0-.403.157-.403.399zm0 0M16.398 17.809c.243 0 .403-.16.403-.403 0-.238-.16-.398-.403-.398H15.2c-.238 0-.398.16-.398.398 0 .242.16.403.398.403zm0 0"/>
</svg>
